svg/fluentui-system-icons/ic_fluent_match_app_layout_24_filled.svg

<svg width="24" height="24" viewBox="0 0 24 24" fill="none" xmlns="http://www.w3.org/2000/svg">
<path d="M9.5 8C10.4665 8 11.25 8.7835 11.25 9.75V14.25C11.25 15.2165 10.4665 16 9.5 16H3.75C2.7835 16 2 15.2165 2 14.25V9.75C2 8.83183 2.70711 8.07881 3.60647 8.0058L3.75 8H9.5ZM20.25 8C21.2165 8 22 8.7835 22 9.75V14.25C22 15.2165 21.2165 16 20.25 16H14.5C13.5335 16 12.75 15.2165 12.75 14.25V9.75C12.75 8.7835 13.5335 8 14.5 8H20.25Z" fill="#212121"/>
</svg>

<svg xmlns="http://www.w3.org/2000/svg" width="24" height="24"><path d="M9.5 8c.966 0 1.75.784 1.75 1.75v4.5A1.75 1.75 0 0 1 9.5 16H3.75A1.75 1.75 0 0 1 2 14.25v-4.5a1.75 1.75 0 0 1 1.606-1.744L3.75 8H9.5Zm10.75 0c.966 0 1.75.784 1.75 1.75v4.5A1.75 1.75 0 0 1 20.25 16H14.5a1.75 1.75 0 0 1-1.75-1.75v-4.5c0-.966.784-1.75 1.75-1.75h5.75Z"/></svg>
